img/settings-icon-alt.svg

<svg width="20" height="21" viewBox="0 0 20 21" fill="none" xmlns="http://www.w3.org/2000/svg">
<path fill-rule="evenodd" clip-rule="evenodd" d="M18.5281 6.34554L17.9057 5.26545C17.3791 4.35153 16.2121 4.03624 15.297 4.56064V4.56064C14.8613 4.81727 14.3415 4.89008 13.8521 4.76301C13.3628 4.63594 12.944 4.31944 12.6883 3.8833C12.5237 3.60607 12.4353 3.29032 12.432 2.96796V2.96796C12.4468 2.45115 12.2518 1.95033 11.8915 1.57959C11.5311 1.20886 11.036 0.999787 10.5189 1H9.26494C8.7584 0.999994 8.27275 1.20184 7.91544 1.56087C7.55812 1.9199 7.35861 2.40652 7.36105 2.91304V2.91304C7.34603 3.95885 6.49392 4.79873 5.448 4.79863C5.12565 4.79528 4.80989 4.70687 4.53267 4.54233V4.54233C3.6175 4.01794 2.45055 4.33322 1.92397 5.24714L1.25578 6.34554C0.729846 7.25832 1.04084 8.42453 1.95143 8.95423V8.95423C2.54334 9.29596 2.90797 9.92751 2.90797 10.611C2.90797 11.2945 2.54334 11.926 1.95143 12.2677V12.2677C1.04199 12.7939 0.730663 13.9573 1.25578 14.8673V14.8673L1.88736 15.9565C2.13408 16.4017 2.54804 16.7302 3.03763 16.8694C3.52722 17.0085 4.05208 16.9468 4.49606 16.6979V16.6979C4.93252 16.4433 5.45262 16.3735 5.94078 16.5041C6.42893 16.6348 6.84467 16.955 7.0956 17.3936C7.26013 17.6708 7.34854 17.9866 7.35189 18.3089V18.3089C7.35189 19.3655 8.20839 20.222 9.26494 20.222H10.5189C11.5719 20.222 12.4269 19.371 12.432 18.3181V18.3181C12.4295 17.81 12.6303 17.3219 12.9896 16.9626C13.3489 16.6034 13.8369 16.4026 14.345 16.405C14.6666 16.4136 14.9811 16.5017 15.2604 16.6613V16.6613C16.1731 17.1873 17.3394 16.8763 17.8691 15.9657V15.9657L18.5281 14.8673C18.7832 14.4294 18.8532 13.9079 18.7226 13.4183C18.5921 12.9287 18.2717 12.5113 17.8324 12.2586V12.2586C17.3932 12.0059 17.0728 11.5885 16.9422 11.0989C16.8117 10.6092 16.8817 10.0877 17.1368 9.64989C17.3027 9.36026 17.5428 9.12012 17.8324 8.95423V8.95423C18.7376 8.42482 19.0478 7.26542 18.5281 6.35469V6.35469V6.34554Z" stroke="#848DA4" stroke-width="1.5" stroke-linecap="round" stroke-linejoin="round"/>
<circle cx="9.8969" cy="10.6108" r="2.63616" stroke="#848DA4" stroke-width="1.5" stroke-linecap="round" stroke-linejoin="round"/>
</svg>

<svg width="20" height="21" fill="none" xmlns="http://www.w3.org/2000/svg"><path clip-rule="evenodd" d="M18.528 6.346l-.622-1.08a1.913 1.913 0 0 0-2.609-.705 1.904 1.904 0 0 1-2.609-.678 1.83 1.83 0 0 1-.256-.915A1.914 1.914 0 0 0 10.519 1H9.265A1.904 1.904 0 0 0 7.36 2.913a1.913 1.913 0 0 1-1.913 1.886 1.83 1.83 0 0 1-.915-.257 1.913 1.913 0 0 0-2.609.705l-.668 1.099a1.913 1.913 0 0 0 .695 2.608 1.913 1.913 0 0 1 0 3.314 1.904 1.904 0 0 0-.695 2.6l.631 1.088a1.913 1.913 0 0 0 2.61.742 1.895 1.895 0 0 1 2.599.696c.164.277.253.593.256.915 0 1.056.856 1.913 1.913 1.913h1.254a1.913 1.913 0 0 0 1.913-1.904 1.904 1.904 0 0 1 1.913-1.913c.322.009.636.097.915.256a1.913 1.913 0 0 0 2.61-.695l.658-1.099a1.904 1.904 0 0 0-.696-2.608 1.904 1.904 0 0 1-.695-2.61c.166-.289.406-.529.695-.695a1.913 1.913 0 0 0 .696-2.6v-.008z" stroke="#848DA4" stroke-width="1.5" stroke-linecap="round" stroke-linejoin="round"/><circle cx="9.897" cy="10.611" r="2.636" stroke="#848DA4" stroke-width="1.5" stroke-linecap="round" stroke-linejoin="round"/></svg>
